assets/icons/book_2_fill.svg

<svg width="20" height="20" viewBox="0 0 20 20" fill="none" xmlns="http://www.w3.org/2000/svg">
<path d="M15.6094 1C16.0866 1.00007 16.5444 1.18992 16.8818 1.52734C17.2193 1.86478 17.4091 2.32261 17.4092 2.7998V14.4912C17.4091 14.6423 17.3751 14.7811 17.3076 14.916L16.8164 15.8965C16.754 16.0213 16.7218 16.1592 16.7217 16.2988C16.7217 16.4386 16.7539 16.5771 16.8164 16.7021L17.3057 17.6816C17.3776 17.8187 17.4128 17.9723 17.4082 18.127C17.4035 18.2817 17.3593 18.4329 17.2793 18.5654C17.1992 18.6979 17.086 18.8077 16.9512 18.8838C16.8163 18.9599 16.6636 19 16.5088 19H5.29004C4.57409 19 3.88717 18.7152 3.38086 18.209C2.87454 17.7027 2.58986 17.0158 2.58984 16.2998V3.7002C2.58986 2.98416 2.87454 2.29733 3.38086 1.79102C3.88717 1.28484 4.57409 1 5.29004 1H15.6094ZM5.29004 15.3994C5.05144 15.3994 4.82208 15.4944 4.65332 15.6631C4.48454 15.8319 4.38965 16.0611 4.38965 16.2998C4.38966 16.5385 4.48456 16.7678 4.65332 16.9365C4.82207 17.1052 5.05146 17.2002 5.29004 17.2002H15.0762C14.8703 16.6179 14.8703 15.9817 15.0762 15.3994H5.29004ZM6.66699 8.10254C6.48246 8.10256 6.30529 8.17615 6.1748 8.30664C6.04444 8.43713 5.9707 8.61437 5.9707 8.79883C5.9708 8.98326 6.04438 9.1606 6.1748 9.29102C6.30528 9.42141 6.48253 9.49412 6.66699 9.49414H10.2969C10.4813 9.49409 10.6586 9.42142 10.7891 9.29102C10.9195 9.1606 10.9921 8.98326 10.9922 8.79883C10.9922 8.6144 10.9194 8.43712 10.7891 8.30664C10.6586 8.17618 10.4814 8.10259 10.2969 8.10254H6.66699ZM6.66699 5.1084C6.48246 5.10842 6.30529 5.18201 6.1748 5.3125C6.04434 5.443 5.9707 5.62016 5.9707 5.80469C5.97072 5.98922 6.04432 6.16638 6.1748 6.29688C6.30529 6.42736 6.48246 6.50095 6.66699 6.50098H13.29C13.4745 6.50098 13.6517 6.42722 13.7822 6.29688C13.9127 6.16638 13.9863 5.98923 13.9863 5.80469C13.9863 5.62012 13.9127 5.44301 13.7822 5.3125C13.6517 5.18212 13.4745 5.1084 13.29 5.1084H6.66699Z" fill="currentColor"/>
</svg>

<svg xmlns="http://www.w3.org/2000/svg" width="20" height="20" fill="none" viewBox="0 0 20 20"><path fill="currentColor" d="M15.61 1a1.8 1.8 0 0 1 1.8 1.8v11.69a.9.9 0 0 1-.102.425l-.492.98a.9.9 0 0 0 0 .806l.49.98A.902.902 0 0 1 16.509 19H5.29a2.7 2.7 0 0 1-2.7-2.7V3.7A2.7 2.7 0 0 1 5.29 1zM5.29 15.4a.901.901 0 0 0 0 1.8h9.786a2.7 2.7 0 0 1 0-1.8zm1.377-7.297a.697.697 0 0 0 0 1.391h3.63a.696.696 0 1 0 0-1.391zm0-2.995a.697.697 0 0 0 0 1.393h6.623a.697.697 0 0 0 0-1.393z"/></svg>
